!!!!SEGMENT: pl-wtm--a-43-184-99--001-004_stojowski-zygmunt--piec-piesni-op-11-no-4-ach-jak-mi-smutno.krn
!!!cenid: 18xx:4454
!!!COM: Stojowski, Zygmunt
!!!COM-rismID: pe41019736
!!!CDT: 1870-1946
!!!CNT: Polish
!!!GTL: Pięć pięśni op. 11
!!!OTL: No. 4. Ach, jak mi smutno
!!!OMV: 004
!!!PDT: 1895
!!!AGN: Secular: Song
!!!YEC: Copyright 2022 Narodowy Instytut Fryderyka Chopina (https://polishscores.org)
!!!YEM: License CC-BY-4.0 (https://creativecommons.org/licenses/by/4.0)
!!!SMS-siglum: PL-Wtm
!!!SMS-shelfmark: A-43.184/99
!!!SMS-variant:
!!!SMS-altvar:
!!!SMS-shelfwork: 001-004 G
!!!NIFC-rismSourceID: 1001165241
!!!NIFC-rismChildID: 1001165241
!!!NIFC-islandoraID: pl-wtm:43123
!!!URL-pdf-islandora: https://repozytorium.nifc.pl/islandora/object/pl-wtm%3A43123/datastream/PDF/view
!!!URL-scan: https://polish.musicsources.pl/pl/lokalizacje/galeria/druki-muzyczne/22419/11 @EN{Scan on Polish Music Sources Website} @PL{Skany w portalu Dziedzictwo Muzyki Polskiej w otwartym dostępie}
!!!IIIF:
!!!ONB-nifc:
!!!OMD: Lento e mesto.
!!!AIN: 1 piano 1 vox
!!!key: f#
**kern	**kern	**dynam	**kern	**text	**text	**dynam
*part2	*part2	*part2	*part1	*part1	*part1	*part1
*staff3	*staff2	*	*staff1	*staff1	*staff1	*
*ICklav	*ICklav	*	*ICvox	*	*	*
*Ipiano	*Ipiano	*	*Ivox	*	*	*
*I"PIANO.	*I"PIANO.	*	*I"CANTO.	*	*	*
*clefF4	*clefG2	*	*clefG2	*	*	*
*k[f#c#g#]	*k[f#c#g#]	*	*k[f#c#g#]	*	*	*
*f#:	*f#:	*	*f#:	*	*	*
*M2/4	*M2/4	*	*M2/4	*	*	*
=1	=1	=1	=1	=1	=1	=1
!	!LO:TX:b:i:t=soto voce	!	!	!	!	!
8FFF#/	8r	.	2r	.	.	.
8r	(4ff#\	.	.	.	.	.
4C#\ 4F# 4A 4c#	.	.	.	.	.	.
.	[8cc#\	.	.	.	.	.
=2	=2	=2	=2	=2	=2	=2
*	*^	*	*	*	*	*
8r	2cc#/]	4d\ 4b	>	2r	.	.	.
4FF#/ 4C#	.	.	.	.	.	.	.
.	.	4c#\ 4a	.	.	.	.	.
[8FF#/ [8C#	.	.	]]	.	.	.	.
*	*v	*v	*	*	*	*	*
=3	=3	=3	=3	=3	=3	=3
!	!LO:TX:a:t=poco rit.	!	!	!	!	!
8FF#/] 8C#]	2B/) [>2c# [2f#	.	2r	.	.	.
[4.FF#/ [4.C#	.	.	.	.	.	.
=4	=4	=4	=4	=4	=4	=4
2FF#/] 2C#]	2A/ 2c#] 2f#]	.	2r	.	.	.
=5	=5	=5	=5	=5	=5	=5
!	!LO:TX:a:i:t=a tempo	!	!	!	!	!LO:DY:a:rj
2FF#/	8r	.	4a/	Ach,	Pleu-	p
.	4A/ 4c# 4a	.	.	.	.	.
.	.	.	8g#/	jak	-re	.
.	8A/ 8c# 8a	.	8f#/	mi	mon	.
!!LO:LB:g=original
=6	=6	=6	=6	=6	=6	=6
2GG#/	8r	.	4a/	smu-	â-	.
.	4B/ 4d 4e#X	.	.	.	.	.
.	.	.	8e#X/	-tno	-me,	.
.	8B/ 8c# 8e#	.	8e#/	Mój	le	.
=7	=7	=7	=7	=7	=7	=7
2AA/	8r	.	4f#/	a-	deuil	.
.	4F#/ 4c# 4f#	.	.	.	.	.
.	.	.	8g#/	-nioł	t'en-	.
.	8F#/ 8c# 8f#	.	8a/	mnie	-vi-	.
=8	=8	=8	=8	=8	=8	=8
4.D#X\	8r	.	4b#X\	rzu-	-ron-	.
.	4F#/ 4B#X 4f#	.	.	.	.	.
.	.	.	8a/	-cił	-ne,	.
[8D#\	[8F#/ [>8B# [8f#	.	8a/	w da-	ton	.
=9	=9	=9	=9	=9	=9	=9
*	*	*	*^	*	*	*
8D#\]	8F#/] 8B#] 8f#]	.	8g#/	8g#\L	-le-	bon	.
4D#X\	4F#/ 4B#X 4f#	.	8f#/	8f#\J	-ki	.	.
.	.	.	8e/	4ryy	od-	an-	.
8D#\	8F#/ 8B# 8f#	.	8f#/	.	-biegł	-ge est	.
*	*	*	*v	*v	*	*	*
=10	=10	=10	=10	=10	=10	=10
*^	*	*	*	*	*	*
(8E/L	8GG#\	8G#/ 8B#X 8g#	<	[4g#/	świat	mort	.
8D#X/	4GG#\	4G#/ 4B# 4g#	.	.	.	.	.
8C#/	.	.	[	16g#/]	.	.	.
.	.	.	>	16r	.	.	.
8D#/J)	8GG#\	8G#/ 8B# 8g#	]	8g#/	I	Le	.
*v	*v	*	*	*	*	*	*
!!LO:LB:g=original
=11	=11	=11	=11	=11	=11	=11
8FF#/ 8E	8A/ 8c# 8a	.	(>4a/	pró-	ciel	.
4FF#/ 4E	4A/ 4c# 4a	.	.	.	.	.
.	.	.	8g#/)	.	t'a-	.
8FF#/ 8D#X	8A/ 8B#X 8a	.	8f#/	-żno	-ban-	.
=12	=12	=12	=12	=12	=12	=12
!	!	!	!	!	!	!LO:DY:a:t=molto p:rj
8FF#/ 8Dn	8Bn/ 8a	.	4dd\	wzy-	-don-	p
4FF#/ 4D	4B/ 4a	.	.	.	.	.
.	.	.	8e#X/	-wam	-ne	.
8FF#/ 8D	8B/ 8g#	.	8e#/	A-	Ah	.
=13	=13	=13	=13	=13	=13	=13
8FF#/ 8C#	8A/ 8g#	.	8g#/L	-że-	pleu-	.
!	!	!LO:HP:t=poco cresc.	!	!	!	!LO:HP:a
4FF#/ 4C#	4A/ 4f#	<	8f#/J	.	.	<
.	.	.	8g#/	-by	-re	.
8FF#/ 8C#	[8A/ [8f#	.	8a/	mi	sans	.
=14	=14	=14	=14	=14	=14	=14
*	*	*	*^	*	*	*
8D#X\	8A/] 8B#X 8f#]	.	4b#X\	4ryy	zwró-	trè-	.
4D#\	4A/ 4B# 4f#	.	.	.	.	.	.
.	.	.	8a/	8a\	-cił	-ve	.
[8D#\	[8A/ [>8B# [8f#	.	8a/	8r	za-	.	.
*	*	*	*v	*v	*	*	*
=15	=15	=15	=15	=15	=15	=15
8D#\]	8A/] 8B#] 8f#]	.	8g#/	-bra-	Le	.
4D#X\	4A/ 4B#X 4f#	.	8f#/	-ny	fu-	.
.	.	.	8g#/	ma-	-nes-	.
8D#\	8cn/ 8f# [8a	.	8a/	-rzeń	-te	.
!!LO:PB:g=original
=16	=16	=16	=16	=16	=16	=16
*	*^	*	*^	*	*	*
!	!	!	!	!	!LO:N:cue	!	!	!
8Dn\	(8a/L]	8Bn\ 8e	.	4.b/	2b\	kwiat	sort	.
4D\	8g#/	4B\ 4e	.	.	.	.	.	.
.	8a/	.	.	.	.	.	.	.
[<8D\	[8b/J)	8B\ 8e	.	8b/	.	za-	.	.
*	*	*	*	*v	*v	*	*	*
=17	=17	=17	=17	=17	=17	=17	=17
*^	*	*	*	*	*	*	*
8A/	8D\]	8b/]	8fn\	.	8cc#\	-bra-	a	.
4D\ 4G#	4.ryy	4b/	4e\	.	8b\	-ny	bri-	.
.	.	.	.	.	8cc#\	ma-	-sé	.
8C#\ 8G#	.	8e/ 8b	8ryy	.	8dd\	-rzeń	ton	.
*v	*v	*	*	*	*	*	*	*
=18	=18	=18	=18	=18	=18	=18	=18
!	!	!	!	!	!	!	!LO:HP:a
8BB/ 8E	(8a/L	8d\ 8e	.	[2ee\	kwiat	rê-	<
!	!	!	!LO:HP:a	!	!	!	!
4BB/ 4E	8g#/	4d\ 4e	<	.	.	.	.
.	8a/	.	.	.	.	.	.
[8BB/ [8E	8b/J	[8d\ [8e	[	.	.	.	[[
=19	=19	=19	=19	=19	=19	=19	=19
!	!	!	!LO:HP:a	!	!	!	!LO:HP:a
8BB/] 8E]	8a/L	8d\] 8e]	>	2ee\_	.	.	>
4BB/ 4E	8g#/	4d\ 4e	.	.	.	.	.
.	8a/	.	.	.	.	.	.
8BB/ [8E	8b/J	[8d\ [8e	]	.	.	.	]]
=20	=20	=20	=20	=20	=20	=20	=20
*^	*	*	*	*	*	*	*
8E/]	4.BB\	4a/	4.d\] 4.e]	]	8ee\]	.	-ve	.
4.E/	.	.	.	.	8r	.	.	.
.	.	8g#/)	.	.	4r	.	.	.
.	8BB-X\	8r	8ryy	.	.	.	.	.
*v	*v	*	*	*	*	*	*	*
*	*v	*v	*	*	*	*	*
!!LO:LB:g=original
=21	=21	=21	=21	=21	=21	=21
!	!	!	!	!	!	!LO:DY:a
2AA/ 2E	2c#/ 2e 2a 2cc#	.	4cc#\	Ach,	Pleu-	p
.	.	.	8b\	jak	-re	.
.	.	.	8a/	mi	mon	.
=22	=22	=22	=22	=22	=22	=22
*	*^	*	*	*	*	*
2BB/ 2E	(4a/	2d\	.	4ffn\	smu-	â-	.
.	4g#/)	.	.	8g#/	-tno!	-me!	.
.	.	.	.	8r	.	.	.
*	*v	*v	*	*	*	*	*
=23	=23	=23	=23	=23	=23	=23
8CCn/L 8Cn	8A/L 8e 8a	.	8a/	Cień	Car	.
8CC/ 8C	8A/ 8e 8a	.	8a/	mnie	la	.
!	!	!	!	!	!	!LO:HP:a
8CC/ 8C	8A/ 8e 8a	.	8.a/	już	de-	<
8CC/J 8C	8A/J 8e 8a	.	.	.	.	.
.	.	.	16a/	o-	-sti-	.
=24	=24	=24	=24	=24	=24	=24
8DD/L 8D	8A/L 8fn 8a	.	4b\	-ta-	-né-	[
8DD/ 8D	8A/ 8f 8a	.	.	.	.	.
8DD/ 8D	8A/ 8f 8a	.	8b\	-cza	-e	.
8DD/J 8D	8A/J 8f 8a	.	8b\	Po-	Te	.
=25	=25	=25	=25	=25	=25	=25
*	*	*	*^	*	*	*
!	!	!	!	!	!	!	!LO:HP:a
8DD/L 8D	8A/L 8fn 8a	<	8ccn\	4ryy	-sę-	dit	<
8DD/ 8D	8A/ 8f 8a	.	8cc\	.	-pny	de	.
8DD/ 8D	8A-X/ 8f 8a-X	.	8a-X/	8a-\L	gro-	souf-	.
8DD/J 8D	8A-/J 8f 8a-	[	8fn/	8f\J	-bu	.	[
*	*	*	*v	*v	*	*	*
!!LO:LB:g=original
=26	=26	=26	=26	=26	=26	=26
8DD/L 8D	8G#X/L 8fn 8g#X	.	[4ccn\	cień	-frir	.
8DD/ 8D	8G#/ 8f 8g#	.	.	.	.	.
8DD/ 8D	8G#/ 8f#X 8g#	.	8cc\]	.	.	.
8DD/J 8D	8G#/J 8f# 8g#	.	8r	.	.	.
=27	=27	=27	=27	=27	=27	=27
!	!	!	!	!	!	!LO:DY:a:t=poco f e stretto
[2CC#/ [2C#	[2A/ [2c# [2f# [2a	mf	4cc#X\	Ser-	Com-	f
.	.	.	8b\	-ce	-me	.
.	.	.	8a/	się	une	.
=28	=28	=28	=28	=28	=28	=28
2CC#/_ 2C#_	2A/_ 2c#_ 2f#_ 2a_	.	8g#/	jesz-	fleur	.
.	.	.	8a/	-cze	par	.
.	.	.	8g#/	zry-	le	.
.	.	.	8f#/	-wa	flot	.
=29	=29	=29	=29	=29	=29	=29
4CC#/] 4C#]	4A/] 4c#] 4f#] 4a]	.	8g#/	i	en-	.
!	!	!	!	!	!	!LO:HP:a:t=rit. e dim.
.	.	.	8a/	roz-	-traî-	>
8BBB^>/L 8BB	8A^>/L 8d 8fn 8a	.	[4dd\	-pa-	-né-	.
[8BBB/J [8BB	[8A/J [8d [8f [8a	.	.	.	.	.
=30	=30	=30	=30	=30	=30	=30
8BBB/] 8BB]	8A/] 8d] 8f] 8a]	.	4dd\]	.	.	.
4BBB/ 4BB	4A/ 4d 4fn 4a	.	.	.	.	.
.	.	.	[4fn/	-cza	-e	.
[8BBB/ [8BB	[8A/ [8d [8f [8a	.	.	.	.	.
!!LO:LB:g=original
=31	=31	=31	=31	=31	=31	=31
!	!	!	!LO:TX:a:i:t=a tempo	!	!	!
8BBB/] 8BB]	8A/] 8d] 8f] 8a]	.	4fn/]	.	.	.
4BBB/ 4BB	4A/ 4d 4fn 4a	.	.	.	.	.
.	.	.	8r	.	.	.
[8BBB/ [8BB	[8A/ [8d [8f [8a	.	8dd\	Szu-	Tu	.
=32	=32	=32	=32	=32	=32	=32
!	!	!	!	!	!	!LO:HP:a
8BBB/] 8BB]	8A/] 8d] 8f] 8a]	<	8cc#\	-ka-	vou-	<
4BBB/ 4BB	4A/ 4d 4fn 4a	.	8b\	-jąc	-drais	.
.	.	[	8cc#\	ja-	en	.
8BBB/ 8BB	8A/ 8d 8f 8a	.	8dd\	-snych	fi-	[
=33	=33	=33	=33	=33	=33	=33
*^	*^	*	*	*	*	*
(8A/L	8BB\ 8E	(8a/L	8d\ 8e	.	4.ee\	tchnień,	-nir	.
8G#/	4.BB\ 4.E	8g#/	4d\ 4e	>	.	.	.	.
8A/	.	8a/	.	.	.	.	.	.
!	!	!	!	!	!	!	!	!LO:HP:a
8B/J)	.	8b/J)	8d\ 8e	]]	8dd\	szu-	et	>
*v	*v	*	*	*	*	*	*	*
*	*v	*v	*	*	*	*	*
=34	=34	=34	=34	=34	=34	=34
!	!	!	!	!	!	!LO:DY:a
8BB\ 8A	8d/ 8fn 8a	p	8cc#\	-ka-	pou-	] p
4BB\ 4A	4d/ 4f 4a	.	8b\	-jąc	-voir	.
.	.	.	8cc#\	ja-	t'en-	.
8BB\ 8A	8d/ 8f 8a	.	8dd\	-snych	-glou-	.
!!LO:PB:g=original
=35	=35	=35	=35	=35	=35	=35
*^	*^	*	*	*	*	*
(8A/L	8BB\ 8E	(8a/L	8d\ 8e	.	[4ee\	tchnień	-tir	.
8G#/	4.BB\ 4.E	8g#/	4.d\ 4.e	.	.	.	.	.
8A/	.	8a/	.	.	8ee\]	.	.	.
8B/J)	.	8b/J)	.	.	8r	.	.	.
*v	*v	*	*	*	*	*	*	*
*	*v	*v	*	*	*	*	*
=36	=36	=36	=36	=36	=36	=36
!	!	!	!	!	!	!LO:HP:a
2AA#X/	2c#/ 2e 2gn 2cc#	.	4ee\	A-	Mais	>
.	.	.	8dd\	-le	c'est	.
.	.	.	8cc#\	na-	en	]]
=37	=37	=37	=37	=37	=37	=37
2FF#/	2c#/ 2e 2a#X	.	4ggn\	-pró-	vain	.
.	.	.	8a#X/	-żno	Le	.
!	!	!	!	!	!	!LO:HP:a
.	.	.	8a#/	u-	sort	<
=38	=38	=38	=38	=38	=38	=38
!	!	!LO:HP:t=poco cresc.	!	!	!	!
[2GGn/	[2B/ 2d [2b	<	4b\	-ci-	t'a	.
.	.	.	8cc#\	-szyć	con-	[
.	.	.	8dd\	się	-dam-	.
=39	=39	=39	=39	=39	=39	=39
2GG/]	2B/] 2e#X 2b]	.	4dd\	lę-	-né-	.
.	.	.	8e#X/	-ka	-e	.
.	.	.	8e#/	I	N'es-	.
!!LO:LB:g=original
=40	=40	=40	=40	=40	=40	=40
2CC#/ 2C#	2B/ 2en	.	(4en/	pró-	-pè-	.
.	.	.	8dd\)	.	.	.
.	.	.	8cc#\	-żno	-re	.
=41	=41	=41	=41	=41	=41	=41
*	*^	*	*	*	*	*
2FFF#/ 2FF#	2e/ 2f#	(4B\	.	4b\	prze-	pas	.
.	.	4A#X\)	.	8a#X/	-szłość	le	.
!	!	!	!	!	!	!	!LO:HP:a
.	.	.	.	8a#/	o-	re-	<
=42	=42	=42	=42	=42	=42	=42	=42
2BBB/ 2BB	2d/ 2f#	(4c#\	.	(8cc#\L	-skar-	-pos	.
.	.	.	.	8b\J)	.	.	[
.	.	4B\)	.	8cc#\	-żą	dé-	.
.	.	.	.	8dd\	roz-	-sor-	.
=43	=43	=43	=43	=43	=43	=43	=43
*	*	*^	*	*	*	*	*
2CC#/ 2C#	2e#X/	(<4B\ 4d	4ryy	.	[<4ee#X\	-rzu-	-mais	.
.	.	4c#/	8A\L	.	8ee#\]	-tną	.	.
.	.	.	8G#\J)	.	8r	.	.	.
*	*v	*v	*v	*	*	*	*	*
=44	=44	=44	=44	=44	=44	=44
!	!	!LO:DY:rj	!	!	!	!
8DD\L 8D	8F#</L 8c# 8f#	mf	4ff#\	Cię-	Car	.
8DD\ 8D	8F#</ 8c# 8f#	.	.	.	.	.
8DD\ 8D	8F#</ 8cn 8f#	.	8ff#\	-ży	il	.
8DD\J 8D	8F#</J 8c 8f#	.	8ff#\	już	a	.
!!LO:LB:g=original
=45	=45	=45	=45	=45	=45	=45
*	*	*	*^	*	*	*
8DD\L 8D	8F#</L 8B< 8f#	.	4ff#\	4ryy	nad	fui	.
8DD\ 8D	8F#</ 8B< 8f#	.	.	.	.	.	.
!	!	!	!	!LO:N:cue	!	!	!
8CC#\ 8C#	8F#</ 8A< 8f#	.	4f#/	8f#\	niem	loin	.
!	!	!	!	!LO:N:cue	!	!	!LO:HP:a
8CC#\J 8C#	8F#</J 8A< 8f#	<	.	8f#\	.	de	<
=46	=46	=46	=46	=46	=46	=46	=46
!	!LO:TX:a:i:t=slarg.	!	!LO:TX:a:i:t=slarg.	!LO:N:cue	!	!	!
8CCn\ 8Cn	8F#</ 8A< 8f#	.	8f#/	4f#\	Nie-	toi	[
4CC\ 4C	4F#</ 4A< 4f#	[	8f#/	.	-wi-	.	.
.	.	.	8e/	4ryy	-dzial-	pour	.
8CC\ 8C	8F#</ 8A< 8f#	.	8d/	.	-na	ja	.
=47	=47	=47	=47	=47	=47	=47	=47
*	*^	*	*	*	*	*	*
!	!	!	!LO:HP:a	!	!LO:N:cue	!	!	!
8BBB^>/ 8BB	2f#^/	(4Gn\ 4e	>	4f#/	2f#\	rę-	mais	.
4BBB/ 4BB	.	.	.	.	.	.	.	.
!	!	!	!	!	!	!	!	!LO:HP:a
.	.	4G#X\) 4d	.	4f#/	.	-ka	.	>
8CCn^>/ 8BB-X	.	.	]]	.	.	.	.	]]
*	*v	*v	*	*	*	*	*	*
*	*	*	*v	*v	*	*	*
=48	=48	=48	=48	=48	=48	=48
[<2DD\ [<2AA	[>2F#</ [>2cn [2f#	p	4r	.	.	.
.	.	.	4a/	Ach!	Ah!	p
=49	=49	=49	=49	=49	=49	=49
*	*	*	*^	*	*	*
2DD\] 2AA]	2F#</] 2c] 2f#]	.	8r	8ryy	.	.	.
!	!	!	!	!LO:N:cue	!	!	!
.	.	.	4g#/	8a\	jak	Pleu-	.
!	!	!	!	!LO:N:cue	!	!	!
.	.	.	.	8g#\	.	-re	.
!	!	!	!	!LO:N:cue	!	!	!
.	.	.	8f#/	8f#\	mi	mon	.
*	*	*	*v	*v	*	*	*
!!LO:LB:g=original
=50	=50	=50	=50	=50	=50	=50
[<2CC#\ [<2C#	[>2E#X</ [>2B< [2e#X	.	(4.dd\	smu-	â-	.
.	.	.	8e#X/)	.	.	.
=51	=51	=51	=51	=51	=51	=51
2CC#\] 2C#]	2E#</] 2B<] 2e#]	.	4e/	-tno.	-me!	.
.	.	.	4r	.	.	.
=52	=52	=52	=52	=52	=52	=52
*	*^	*	*	*	*	*
!	!LO:TX:a:i:t=a tempo	!	!	!	!	!	!
2GG#/ 2D	(2a/	[2B#X\	pp >	2r	.	.	.
=53	=53	=53	=53	=53	=53	=53	=53
2ryy	4g#/	2B#\]	.	2r	.	.	.
.	[4f#/)	.	.	.	.	.	.
*	*v	*v	*	*	*	*	*
=54	=54	=54	=54	=54	=54	=54
8FFF#/	(8f#/]	]	2r	.	.	.
8r	4ff#\	.	.	.	.	.
4C#\ 4F# 4A 4c#	.	.	.	.	.	.
.	[8cc#\	.	.	.	.	.
=55	=55	=55	=55	=55	=55	=55
*	*^	*	*	*	*	*
8r	2cc#/]	4d\ 4b	.	2r	.	.	.
4FF#/ 4C#	.	.	.	.	.	.	.
!	!LO:TX:a:i:t=rall.	!	!	!	!	!	!
.	.	4c#\ 4a	.	.	.	.	.
[8FF#/ [8C#	.	.	.	.	.	.	.
*	*v	*v	*	*	*	*	*
=56	=56	=56	=56	=56	=56	=56
8FF#/] 8C#]	2B/) [>2c# [2f#	.	2r	.	.	.
[4.FF#/ [4.C#	.	.	.	.	.	.
=57	=57	=57	=57	=57	=57	=57
2FF#/] 2C#]	2A/ 2c#] 2f#]	.	2r	.	.	.
==	==	==	==	==	==	==
*-	*-	*-	*-	*-	*-	*-
!!!system-decoration: s1{(s2,s3)}
!!!RDF**kern: < = below
!!!RDF**kern: > = above
!!!ENC: Berenika Jozajtis
!!!END: 2023-10-23
!!!EED: Marta Chmielewska
!!!EEV: 2023-11-13
